packages/calcite-ui-icons/icons/link-chart-connect-32.svg

<?xml version="1.0" encoding="UTF-8"?><svg id="icons" xmlns="http://www.w3.org/2000/svg" viewBox="0 0 32 32"><defs><style>.cls-1{fill:none;}</style></defs><path d="M29.35352,9.33984l-3.85352,3.85352-3.85352-3.85352.70703-.70703,2.64648,2.64648v-3.2793c0-1.6543-1.3457-3-3-3h-2v-1h2c2.20605,0,4,1.79395,4,4v3.2793l2.64648-2.64648.70703.70703ZM15.97998,14.5c0,1.37891-1.10107,2.5-2.47998,2.5s-2.5-1.12109-2.5-2.5c0-.26123.05145-.5083.12604-.74512l-4.73676-2.6358c-.4588.53461-1.13092.88092-1.88928.88092-1.37891,0-2.5-1.12109-2.5-2.5s1.12109-2.5,2.5-2.5c.75836,0,1.43048.34631,1.88928.88092l4.73676-2.6358c-.07458-.23682-.12604-.48389-.12604-.74512,0-1.37891,1.12109-2.5,2.5-2.5s2.47998,1.12109,2.47998,2.5-1.10107,2.5-2.47998,2.5c-.75836,0-1.43048-.34631-1.88928-.88092l-4.73676,2.6358c.07458.23682.12604.48389.12604.74512s-.05145.5083-.12604.74512l4.73676,2.6358c.4588-.53461,1.13092-.88092,1.88928-.88092,1.37891,0,2.47998,1.12109,2.47998,2.5ZM12,4.5c0,.82715.67285,1.5,1.5,1.5s1.5-.67285,1.5-1.5-.67285-1.5-1.5-1.5-1.5.67285-1.5,1.5ZM15,14.5c0-.82715-.67285-1.5-1.5-1.5s-1.5.67285-1.5,1.5.67285,1.5,1.5,1.5,1.5-.67285,1.5-1.5ZM29.97998,27.5c0,1.37891-1.10107,2.5-2.47998,2.5s-2.5-1.12109-2.5-2.5c0-.26123.05145-.5083.12604-.74512l-4.73676-2.6358c-.4588.53461-1.13092.88092-1.88928.88092-1.37891,0-2.5-1.12109-2.5-2.5s1.12109-2.5,2.5-2.5c.75836,0,1.43048.34631,1.88928.88092l4.73676-2.6358c-.07458-.23682-.12604-.48389-.12604-.74512,0-1.37891,1.12109-2.5,2.5-2.5s2.47998,1.12109,2.47998,2.5c0,1.2074-.84424,2.21686-1.97998,2.4494v5.1012c1.13574.23254,1.97998,1.242,1.97998,2.4494ZM26,17.5c0,.82715.67285,1.5,1.5,1.5s1.5-.67285,1.5-1.5-.67285-1.5-1.5-1.5-1.5.67285-1.5,1.5ZM25.61072,25.88092c.35522-.41388.83502-.71747,1.38928-.83038v-5.10107c-.55426-.11292-1.03406-.4165-1.38928-.83038l-4.73676,2.6358c.07458.23682.12604.48389.12604.74512s-.05145.5083-.12604.74512l4.73676,2.6358ZM29,27.5c0-.82715-.67285-1.5-1.5-1.5s-1.5.67285-1.5,1.5.67285,1.5,1.5,1.5,1.5-.67285,1.5-1.5Z"/><rect class="cls-1" width="32" height="32"/></svg>

<svg xmlns="http://www.w3.org/2000/svg" viewBox="0 0 32 32"><path d="M29.354 9.34L25.5 13.193 21.646 9.34l.708-.707L25 11.279V8c0-1.654-1.346-3-3-3h-2V4h2c2.206 0 4 1.794 4 4v3.28l2.646-2.647.708.707zM15.98 14.5c0 1.379-1.101 2.5-2.48 2.5S11 15.879 11 14.5c0-.261.051-.508.126-.745l-4.737-2.636A2.48 2.48 0 0 1 4.5 12C3.121 12 2 10.879 2 9.5S3.121 7 4.5 7c.758 0 1.43.346 1.89.88l4.736-2.635A2.467 2.467 0 0 1 11 4.5C11 3.121 12.121 2 13.5 2s2.48 1.121 2.48 2.5S14.879 7 13.5 7a2.49 2.49 0 0 1-1.89-.88L6.875 8.754c.075.237.126.484.126.745s-.051.508-.126.745l4.737 2.636A2.484 2.484 0 0 1 13.5 12a2.485 2.485 0 0 1 2.48 2.5zM12 4.5c0 .827.673 1.5 1.5 1.5S15 5.327 15 4.5 14.327 3 13.5 3 12 3.673 12 4.5zm3 10c0-.827-.673-1.5-1.5-1.5s-1.5.673-1.5 1.5.673 1.5 1.5 1.5 1.5-.673 1.5-1.5zm14.98 13c0 1.379-1.101 2.5-2.48 2.5S25 28.879 25 27.5c0-.261.051-.508.126-.745l-4.737-2.636A2.482 2.482 0 0 1 18.5 25c-1.379 0-2.5-1.121-2.5-2.5s1.121-2.5 2.5-2.5c.758 0 1.43.346 1.89.88l4.736-2.635A2.467 2.467 0 0 1 25 17.5c0-1.379 1.121-2.5 2.5-2.5s2.48 1.121 2.48 2.5A2.49 2.49 0 0 1 28 19.95v5.1a2.49 2.49 0 0 1 1.98 2.45zM26 17.5c0 .827.673 1.5 1.5 1.5s1.5-.673 1.5-1.5-.673-1.5-1.5-1.5-1.5.673-1.5 1.5zm-.39 8.38a2.49 2.49 0 0 1 1.39-.83v-5.1a2.49 2.49 0 0 1-1.39-.83l-4.736 2.635c.075.237.126.484.126.745s-.051.508-.126.745l4.737 2.636zM29 27.5c0-.827-.673-1.5-1.5-1.5s-1.5.673-1.5 1.5.673 1.5 1.5 1.5 1.5-.673 1.5-1.5z"/><path fill="none" d="M0 0h32v32H0z"/></svg>
